X: 1
T: Sólblóm
R: polska
N: Groupa
M: 3/4
Q: 1/4=90
L: 1/16
K: EMinor
EFGF E3D E2F2 | EFGA {A}B6 AB | c2 B2 {AB}A2 G2 F2 E2 | FGFE FGFE D4 |
EGGF E3D E2F2 | EFGA {A}B6 AB | c2 B2 {AB}A2 G2 F2 E2 |1 FEDE E8 :|2 FEDE E6 F2 |
|: G3F GAB2- B2d2 | A2AG FGAF D4- | D2ED EFGA B2AG | F2FE D2F2 B,4 |
EGGF E3D E2F2 | EFGA {A}B6 A2 | GFGA BABc dedc |1 BAGF F2E2 E3F :|2 BAGF F2E2 E4 :|
